src/assets/duotone/Hospital.svg

<?xml version="1.0" encoding="UTF-8"?>
<svg width="24" height="24" viewBox="0 0 24 24" xmlns="http://www.w3.org/2000/svg">
 <path d="m22 21.25h-20c-0.41 0-0.75 0.34-0.75 0.75s0.34 0.75 0.75 0.75h20c0.41 0 0.75-0.34 0.75-0.75s-0.34-0.75-0.75-0.75z"/>
 <path d="M17 2H7C4 2 3 3.79 3 6V22H21V6C21 3.79 20 2 17 2Z" opacity=".4"/>
 <path d="m14.06 15h-4.13c-0.51 0-0.93999 0.42-0.93999 0.94v6.06h6v-6.06c0.01-0.52-0.41-0.94-0.93-0.94z"/>
 <path d="m14.5 7.75h-1.75v-1.75c0-0.41-0.34-0.75-0.75-0.75s-0.75 0.34-0.75 0.75v1.75h-1.75c-0.41 0-0.75 0.34-0.75 0.75s0.34 0.75 0.75 0.75h1.75v1.75c0 0.41 0.34 0.75 0.75 0.75s0.75-0.34 0.75-0.75v-1.75h1.75c0.41 0 0.75-0.34 0.75-0.75s-0.34-0.75-0.75-0.75z"/>
</svg>

<svg width="24" height="24" viewBox="0 0 24 24"  xmlns="http://www.w3.org/2000/svg">
<path d="M22 21.25H2C1.59 21.25 1.25 21.59 1.25 22C1.25 22.41 1.59 22.75 2 22.75H22C22.41 22.75 22.75 22.41 22.75 22C22.75 21.59 22.41 21.25 22 21.25Z" />
<path opacity="0.4" d="M17 2H7C4 2 3 3.79 3 6V22H21V6C21 3.79 20 2 17 2Z" />
<path d="M14.0602 15H9.93022C9.42022 15 8.99023 15.42 8.99023 15.94V22H14.9902V15.94C15.0002 15.42 14.5802 15 14.0602 15Z" />
<path d="M14.5 7.75H12.75V6C12.75 5.59 12.41 5.25 12 5.25C11.59 5.25 11.25 5.59 11.25 6V7.75H9.5C9.09 7.75 8.75 8.09 8.75 8.5C8.75 8.91 9.09 9.25 9.5 9.25H11.25V11C11.25 11.41 11.59 11.75 12 11.75C12.41 11.75 12.75 11.41 12.75 11V9.25H14.5C14.91 9.25 15.25 8.91 15.25 8.5C15.25 8.09 14.91 7.75 14.5 7.75Z" />
</svg>
